X: 35567
T: Ryan's
R: hornpipe
M: 4/4
K: Bminor
|:dC|B4 BAFB|ABde f2 ed|e4 edBd|e4 edBA|
B4 BAFB|ABde f2 ed|eaag edBG|A6:|
|:GB|Addc d3 e|fded B3 d|ea^ga edBG|AFAB dBcA|
B4 BAFB|ABde f2 ed|eaag edBG|A6:|

